source/svgs/bowtie/uE946-deploy.svg

<svg xmlns="http://www.w3.org/2000/svg" viewBox="0 0 448 448" enable-background="new 0 0 448 448"><path d="M288 0h-128v128h128v-128zm-32 96h-64v-64h64v64zm-128 32h-128v-128h128v128zm80 41.375l107.313 107.313-22.625 22.625-68.688-68.688v217.375h-32v-217.375l-68.688 68.688-22.625-22.625 107.313-107.313zm240-169.375v128h-128v-128h128z"/></svg>

<svg xmlns="http://www.w3.org/2000/svg" viewBox="0 0 448 448"><path d="M288 0H160v128h128V0zm-32 96h-64V32h64v64zm-128 32H0V0h128v128zm80 41.375l107.313 107.313-22.625 22.625L224 230.625V448h-32V230.625l-68.688 68.688-22.625-22.625L208 169.375zM448 0v128H320V0h128z"/></svg>
